X:373
T: ES BLIES EIN JAEGER
N: F0661A
O: Europa, Mitteleuropa, Deutschland
R: Staende -, Jaeger - Lied, Liebe, Tod
M: 2/4
L: 1/16
K: A
E2 | A2A2AAB2 | c2e2A2
B2 | c2e2A2
A2 | BBBBBAGA | BAGFE2z2 |
A2A2A2c2 | B2B2B3
B | cBcde2A2 | cBB2A2

@@@ Tune index: 5804
